archdroid-icon-theme/Archdroid-Amber/status/scalable/alarm.svg

<svg fill="#FFC107" height="48" viewBox="0 0 48 48" width="48" xmlns="http://www.w3.org/2000/svg"><path d="m44 11.44-9.19-7.71-2.57 3.06 9.19 7.71zm-28.24-4.66-2.57-3.06-9.19 7.71 2.57 3.06zm9.24 9.22h-3v12l9.49 5.71 1.51-2.47-8-4.74zm-1.01-8c-9.95 0-17.99 8.06-17.99 18s8.04 18 17.99 18 18.01-8.06 18.01-18-8.06-18-18.01-18zm.01 32c-7.73 0-14-6.27-14-14s6.27-14 14-14 14 6.27 14 14-6.26 14-14 14z" fill="#FFC107"/></svg>

<svg fill="#FFC107" height="48" viewBox="0 0 48 48" width="48" xmlns="http://www.w3.org/2000/svg"><path d="M44 11.44l-9.19-7.71-2.57 3.06 9.19 7.71L44 11.44zM15.76 6.78l-2.57-3.06L4 11.43l2.57 3.06 9.19-7.71zM25 16h-3v12l9.49 5.71L33 31.24l-8-4.74V16zm-1.01-8C14.04 8 6 16.06 6 26s8.04 18 17.99 18S42 35.94 42 26 33.94 8 23.99 8zM24 40c-7.73 0-14-6.27-14-14s6.27-14 14-14 14 6.27 14 14-6.26 14-14 14z"/></svg>
